Cawnonical Mono-Glyph Icon Suite/packaged/Cawnonical Mono-Glyph Icon Suite Grey/apps/glyphs/umbrello.svg

<svg height="16" width="16" xmlns="http://www.w3.org/2000/svg"><path fill="rgb(127, 127, 127)" d="m8.903 2.965.006.324c.081.022.105.046.196.061 2.826.146 4.133 2.962 4.174 5.645h-4.405c-.032 1.044.006.696 0 1.739-.023.385.029 1.531-.118 1.74-.143.569-.67.935-1.692.869-1.218.055-1.667-.969-1.654-1.651-.029-.188-.042-.935.439-.938.444.011.443.697.459.853.017.315.052.686.359.823.388.188.838.207 1.095-.119.145-.159.253-.501.243-.707-.007-1.246.03-1.363 0-2.609h-5.218c.042-2.848 1.998-5.54 5.2-5.704l.003-.326c.015-.488.917-.494.913 0zm-.812 1.329c-2.142-.029-3.772 1.336-3.964 3.61h7.794c-.107-2.366-1.293-3.551-3.83-3.61zm-6.722 10.224 13.172.023v-13.059h-13.172zm-.369-14.518h14c.552 0 1 .448 1 1v14c0 .552-.448 1-1 1h-14c-.552 0-1-.448-1-1v-14c0-.552.448-1 1-1z"/></svg>

<?xml version="1.0" encoding="utf-8"?>
<svg height="16" width="16" xmlns="http://www.w3.org/2000/svg">
  <path fill="rgb(127, 127, 127)" d="M 8.903 2.965 L 8.909 3.289 C 8.99 3.311 9.014 3.335 9.105 3.35 C 11.931 3.496 13.238 6.312 13.279 8.995 L 8.874 8.995 C 8.842 10.039 8.88 9.691 8.874 10.734 C 8.851 11.119 8.903 12.265 8.756 12.474 C 8.613 13.043 8.086 13.409 7.064 13.343 C 5.846 13.398 5.397 12.374 5.41 11.692 C 5.381 11.504 5.368 10.757 5.849 10.754 C 6.293 10.765 6.292 11.451 6.308 11.607 C 6.325 11.922 6.36 12.293 6.667 12.43 C 7.055 12.618 7.505 12.637 7.762 12.311 C 7.907 12.152 8.015 11.81 8.005 11.604 C 7.998 10.358 8.035 10.241 8.005 8.995 L 2.787 8.995 C 2.829 6.147 4.785 3.455 7.987 3.291 L 7.99 2.965 C 8.005 2.477 8.907 2.471 8.903 2.965 Z M 1.369 14.518 L 14.541 14.541 L 14.541 1.482 L 1.369 1.482 L 1.369 14.518 Z M 1 0 L 15 0 C 15.552 0 16 0.448 16 1 L 16 15 C 16 15.552 15.552 16 15 16 L 1 16 C 0.448 16 0 15.552 0 15 L 0 1 C 0 0.448 0.448 0 1 0 Z"/>
</svg>
